src/assets/img/icons/mask/icon-areas-machine-learning.svg

<svg width="68" height="68" viewBox="0 0 68 68" fill="none" xmlns="http://www.w3.org/2000/svg">
<path d="M28.5161 41.6774H31.8065V43.871H34V41.6774H35.0968C37.5163 41.6774 39.4839 39.7099 39.4839 37.2903C39.4839 35.982 38.9082 34.8038 37.9956 34C38.9082 33.1962 39.4839 32.018 39.4839 30.7097C39.4839 28.2901 37.5163 26.3226 35.0968 26.3226H34V24.129H31.8065V26.3226H28.5161V41.6774ZM30.7097 28.5161H35.0968C36.3065 28.5161 37.2903 29.4999 37.2903 30.7097C37.2903 31.9195 36.3065 32.9032 35.0968 32.9032H30.7097V28.5161ZM30.7097 35.0968H35.0968C36.3065 35.0968 37.2903 36.0806 37.2903 37.2903C37.2903 38.5001 36.3065 39.4839 35.0968 39.4839H30.7097V35.0968ZM32.9032 2.19355H30.7097V0H32.9032V2.19355ZM30.7097 4.3871H32.9032V20.8387H30.7097V4.3871ZM37.2903 2.19355H35.0968V0H37.2903V2.19355ZM35.0968 4.3871H37.2903V20.8387H35.0968V4.3871ZM21.9355 2.19355H19.7419V0H21.9355V2.19355ZM48.2581 2.19355H46.0645V0H48.2581V2.19355ZM35.0968 65.8064H37.2903V68H35.0968V65.8064ZM37.2903 63.6129H35.0968V47.1613H37.2903V63.6129ZM30.7097 65.8064H32.9032V68H30.7097V65.8064ZM32.9032 63.6129H30.7097V47.1613H32.9032V63.6129ZM48.2581 65.8064V68H46.0645V65.8064H48.2581ZM19.7419 65.8064H21.9355V68H19.7419V65.8064ZM26.3226 52.1305L19.7419 57.6144V63.6129H21.9355V58.6437L28.5161 53.1598V47.1645L27.8912 46.8673C22.9401 44.5115 19.7419 39.4608 19.7419 34C19.7419 30.5737 20.9812 27.2614 23.232 24.6753L21.5777 23.2363C18.9799 26.2208 17.5484 30.0451 17.5484 34C17.5484 40.0687 20.9694 45.6982 26.3226 48.5333V49.3548H13.1056C12.5824 43.577 7.97143 38.966 2.19355 38.4428V29.5583C7.97143 29.034 12.5824 24.4241 13.1056 18.6462H26.3226V19.4677C25.2269 20.0488 24.1928 20.7573 23.2406 21.5788L24.6763 23.2395C25.658 22.3918 26.7392 21.6832 27.8912 21.1349L28.5161 20.8355V14.8402L21.9355 9.35632V4.3871H19.7419V10.3856L26.3226 15.8695V16.4516H0V51.5484H26.3226V52.1305ZM10.9029 18.6452C10.3953 23.2133 6.76166 26.8469 2.19355 27.3546V18.6452H10.9029ZM2.19355 40.6454C6.76166 41.1531 10.3953 44.7867 10.9029 49.3548H2.19355V40.6454ZM41.6774 15.8695L48.2581 10.3856V4.3871H46.0645V9.35632L39.4839 14.8402V20.8355L40.1088 21.1327C45.0599 23.4885 48.2581 28.5392 48.2581 34C48.2581 37.4263 47.0188 40.7386 44.768 43.3247L46.4223 44.7637C49.0201 41.7792 50.4516 37.9549 50.4516 34C50.4516 27.9313 47.0306 22.3018 41.6774 19.4667V18.6452H54.8944C55.4187 24.423 60.0286 29.034 65.8064 29.5572V38.4417C60.0286 38.966 55.4176 43.5759 54.8944 49.3538H41.6774V48.5323C42.7731 47.9512 43.8072 47.2427 44.7594 46.4212L43.3237 44.7605C42.342 45.6082 41.2608 46.3168 40.1088 46.8651L39.4839 47.1645V53.1598L46.0645 58.6437V63.6129H48.2581V57.6144L41.6774 52.1305V51.5484H68V16.4516H41.6774V15.8695ZM57.0971 49.3548C57.6047 44.7867 61.2383 41.1531 65.8064 40.6454V49.3548H57.0971ZM65.8064 27.3546C61.2383 26.8469 57.6047 23.2133 57.0971 18.6452H65.8064V27.3546ZM6.58065 23.0323H4.3871V20.8387H6.58065V23.0323ZM63.6129 23.0323H61.4194V20.8387H63.6129V23.0323ZM4.3871 44.9677H6.58065V47.1613H4.3871V44.9677ZM61.4194 44.9677H63.6129V47.1613H61.4194V44.9677Z" fill="url(#paint0_linear)"/>
<defs>
<linearGradient id="paint0_linear" x1="34" y1="68" x2="34" y2="0" gradientUnits="userSpaceOnUse">
<stop stop-color="#7F85A8"/>
<stop offset="1" stop-color="#6B6B8B"/>
</linearGradient>
</defs>
</svg>

<svg xmlns="http://www.w3.org/2000/svg" width="68" height="68" fill="none"><path fill="url(#paint0_linear)" d="M28.52 41.68h3.29v2.2H34v-2.2h1.1A4.4 4.4 0 0038 34a4.38 4.38 0 00-2.9-7.68H34v-2.2h-2.2v2.2h-3.28v15.36zm2.19-13.16h4.39a2.2 2.2 0 010 4.38H30.7v-4.38zm0 6.58h4.39a2.2 2.2 0 010 4.38H30.7V35.1zm2.2-32.9h-2.2V0h2.2v2.2zm-2.2 2.19h2.2v16.45h-2.2V4.39zm6.58-2.2h-2.2V0h2.2v2.2zm-2.2 2.2h2.2v16.45h-2.2V4.39zm-13.15-2.2h-2.2V0h2.2v2.2zm26.32 0h-2.2V0h2.2v2.2zM35.1 65.81h2.19V68h-2.2v-2.2zm2.19-2.2h-2.2V47.16h2.2v16.45zm-6.58 2.2h2.2V68h-2.2v-2.2zm2.2-2.2h-2.2V47.16h2.2v16.45zm15.35 2.2V68h-2.2v-2.2h2.2zm-28.52 0h2.2V68h-2.2v-2.2zm6.58-13.68l-6.58 5.48v6h2.2v-4.97l6.58-5.48v-6l-.63-.3a14.2 14.2 0 01-4.66-22.2l-1.65-1.42a16.4 16.4 0 004.74 25.3v.81H13.11a12.08 12.08 0 00-10.92-10.9v-8.9a12.08 12.08 0 0010.92-10.9h13.21v.82a16.7 16.7 0 00-3.08 2.1l1.44 1.67c.98-.85 2.06-1.56 3.21-2.1l.63-.3v-6l-6.58-5.48V4.39h-2.2v6l6.58 5.48v.58H0v35.1h26.32v.58zM10.9 18.65a9.88 9.88 0 01-8.7 8.7v-8.7h8.7zm-8.7 22c4.56.5 8.2 4.14 8.7 8.7H2.2v-8.7zm39.48-24.78l6.58-5.48v-6h-2.2v4.97l-6.58 5.48v6l.63.3a14.2 14.2 0 014.66 22.2l1.65 1.42a16.4 16.4 0 00-4.74-25.3v-.81h13.21a12.08 12.08 0 0010.92 10.9v8.9a12.08 12.08 0 00-10.92 10.9H41.68v-.82a16.7 16.7 0 003.08-2.1l-1.44-1.67c-.98.85-2.06 1.56-3.21 2.1l-.63.3v6l6.58 5.48v4.97h2.2v-6l-6.58-5.48v-.58H68v-35.1H41.68v-.58zM57.1 49.35a9.88 9.88 0 018.7-8.7v8.7h-8.7zm8.7-22a9.88 9.88 0 01-8.7-8.7h8.7v8.7zM6.59 23.03h-2.2v-2.2h2.2v2.2zm57.03 0h-2.2v-2.2h2.2v2.2zM4.4 44.97h2.2v2.2h-2.2v-2.2zm57.03 0h2.2v2.2h-2.2v-2.2z"/><defs><linearGradient id="paint0_linear" x1="34" x2="34" y1="68" y2="0" gradientUnits="userSpaceOnUse"><stop stop-color="#7F85A8"/><stop offset="1" stop-color="#6B6B8B"/></linearGradient></defs></svg>
